Obsidian/status/16s/gpm-ups-000.svg

<svg height="16" width="16" xmlns="http://www.w3.org/2000/svg"><g fill="#5294e2"><path d="m6 1v1h-3v12c0 .55.446 1 1 1h7v-10h2v-3h-3v-1z" opacity=".3"/><path d="m12 6v5l.25 2h1.5l.25-2v-5zm0 8v2h2v-2z"/></g></svg>

<svg xmlns="http://www.w3.org/2000/svg" width="16" height="16" version="1.1">
 <defs>
  <style id="current-color-scheme" type="text/css">
   .ColorScheme-Text { color:#d3dae3; } .ColorScheme-Highlight { color:#5294e2; }
  </style>
 </defs>
 <path style="opacity:0.3;fill:currentColor" class="ColorScheme-Highlight" d="M 6,1 V 2 H 3 V 14 C 3,14.55 3.446,15 4,15 H 11 V 5 H 13 V 2 H 10 V 1 Z"/>
 <path style="fill:currentColor" class="ColorScheme-Highlight" d="M 12,6 V 11 L 12.25,13 H 13.75 L 14,11 V 6 Z M 12,14 V 16 H 14 V 14 Z"/>
</svg>
